X: 1
T: Da Boannie Polka
S: Various sources
Z: Nigel Gatherer (2009)
N: "The last of June" is hand-written below the tune.
M: 2/4
L: 1/8
K: D
   AG | "D"F2A2 "G"G2B2 | "D"A2f2 fafd | "Em"B2e2 "A7"efec | "D"A2D2 D2 :|
|: fe | "G"d2B2    BcdB | "D"A2F2 F3 A | "Em"G2E2 "A7"EFGE | "D"F2D2 D2 :|
"ev."y vA(uG | F2) vA(uF G2) vB(uG | A2)
%%text Tom Anderson wrote:
%%begintext align
%% I learned dis een frae da late Jean Pole o' Waas.  Sh\"u wis a body
%% aboot 80 years auld whin sh\"u played him ta me.  When sh\"u played him,
%% which sh\"u always did sittin doon, sh\"u kinda danced da t\"un wi her feet
%% so dat du could nearly see da steps o' da polka.  Dere is different
%% wyes o' him played in England whaur he's \"osed fir a polka as weel.
%%endtext
%%begintext align
%% Dis is a fine aisy wye o' him.  Whin du's played fir a peerie while,
%% try da first bar o' him da wye dat we're written him at da end o'
%% da t\"un.
%%endtext
